/* XPM */
static char * bitweb64_xpm[] = {
"64 64 2 1",
" 	c None",
".	c #FFE201",
"                          ............                          ",
"                      ....................                      ",
"                    ........................                    ",
"                 ...........        ..........                  ",
"                .......                  .......                ",
"              .......                      .......              ",
"             ......                          ......             ",
"           ......                              ......           ",
"          .....                                  .....          ",
"         .....                                    .....         ",
"        .....              ...........             .....        ",
"       .....        ........................        .....       ",
"       ....      ..............................      ....       ",
"      ....       ..............................       ....      ",
"     ....        ..............................        ....     ",
"     ...   .     .............    .............     ..  ...     ",
"    .... ...     ...........   ..   ...........     ... ....    ",
"   ....  ...     ..........   ....   ..........     ...  ...    ",
"   ....  ...     ..........   ....   ..........     ...  ....   ",
"   ...   ...     .........   ......   .........     ...   ...   ",
"  ....   ....    .........   ......   .........    ....   ....  ",
"  ...    ....     .......   ........   ........    ....    ...  ",
" ....    ....     .......   ........   .......     ....    .... ",
" ...     ....     .......   ........   .......     ....     ... ",
" ...     ....     .......   ........   .......     ....     ... ",
" ...      ....    ......    ........    ......    ....      ... ",
"....      ....     .....    ........    .....     ....      ... ",
"....      ....     .....    ........    .....     ....      ....",
"...       ....     ......   ........    .....     ....       ...",
"...       .....    ......   ........   ......    .....       ...",
"...        ....     .....   ........   .....     ....        ...",
"...        ....     .....   ........   .....     ....        ...",
"...        .....    ......   ......   ......    .....        ...",
"...         ....     .....   ......   .....     ....         ...",
"...         .....    ......   ....   ......    .....         ...",
"...         .....     .....   ....   .....     .....         ...",
"....         ....     ......   ..   ......     ....         ....",
"....         .....     .....        .....     .....         ... ",
" ...          .....    ......      ......    .....          ... ",
" ...          .....     ......    ......     .....          ... ",
" ...           .....    ......    ......    .....           ... ",
" ....          .....     .....    .....     .....          .... ",
"  ...           .....    ....      ....    .....           ...  ",
"  ....          ......    ..   ..   ..    ......          ....  ",
"   ...           .....        ....        .....           ...   ",
"   ....          ......      ......      .....           ....   ",
"    ...           ......    ........    ......           ...    ",
"    ....           .....     ......     .....           ....    ",
"     ...            ...       ....       ...            ...     ",
"     ....           ..   ..   ....   ..   ..           ....     ",
"      ....              ....   ..   ....              ....      ",
"       ....            ......      ......            ....       ",
"       .....           .......    .......           .....       ",
"        .....           .......  .......           .....        ",
"         .....           ..............           .....         ",
"          .....           ............           .....          ",
"           ......           ........           ......           ",
"             ......          ......          ......             ",
"              .......         ...          .......              ",
"                .......                  .......                ",
"                  ..........        ..........                  ",
"                    ........................                    ",
"                      ....................                      ",
"                           ..........                           "};
