/* XPM */
static char * bitweb128_xpm[] = {
"128 128 2 1",
" 	c None",
".	c #FFE201",
"                                                        ................                                                        ",
"                                                  ............................                                                  ",
"                                              ....................................                                              ",
"                                           ..........................................                                           ",
"                                        ...............................................                                         ",
"                                      ....................................................                                      ",
"                                    ........................         .......................                                    ",
"                                  ...................                      ...................                                  ",
"                                ................                                ................                                ",
"                              ...............                                      ..............                               ",
"                             ..............                                          ..............                             ",
"                           .............                                                .............                           ",
"                          ............                                                    ............                          ",
"                         ...........                                                        ...........                         ",
"                       ...........                                                            ...........                       ",
"                      ...........                                                              ...........                      ",
"                     ..........                                                                  ..........                     ",
"                    ..........                                                                    ..........                    ",
"                   ..........                                                                      ..........                   ",
"                  .........                                                                          .........                  ",
"                 .........                                   ......                                   .........                 ",
"                .........                        ..............................                        .........                ",
"               .........                   ..........................................                   .........               ",
"              .........                ...................................................               ........               ",
"              ........             ..........................................................             ........              ",
"             ........            ..............................................................            ........             ",
"            ........             ..............................................................             ........            ",
"           ........              ..............................................................              ........           ",
"           ........              ..............................................................              ........           ",
"          ........                .............................  ..............................         .     ........          ",
"         ........     ..          ..........................        ...........................         ..     .......          ",
"         .......    ....          ........................            .........................         ....    .......         ",
"        ........   .....          .......................       .      .......................          .....   ........        ",
"        .......   ......          ......................      ....      ......................          ......   .......        ",
"       .......   .......          .....................      ......      .....................          .......  ........       ",
"       .......    .......         .....................     ........      ....................          .......   .......       ",
"      .......     .......         ....................      .........     ....................         ........    .......      ",
"      .......     .......         ...................      ..........      ...................         ........    .......      ",
"     .......      .......         ...................     ............     ...................         ........     .......     ",
"     .......      .......          .................      ............      ..................         .......      .......     ",
"    .......       .......          .................      .............     .................          .......       ......     ",
"    .......       .......          ................      ..............      ................          .......       .......    ",
"    ......        .......          ................      ..............      ................          .......       .......    ",
"   .......        ........         ................      ..............      ................          .......        .......   ",
"   .......        ........         ...............      ................      ...............         ........        .......   ",
"   ......         ........          ..............      ................      ...............         ........         ......   ",
"  .......          .......          ..............      ................      ..............          ........         ......   ",
"  .......          .......          ..............      ................       .............          ........         .......  ",
"  ......           ........         .............       ................       .............          .......          .......  ",
"  ......           ........         .............       ................       .............         ........           ......  ",
" .......           ........          ............       ................       .............         ........           ......  ",
" .......           ........          ............       ................       ............          ........           ....... ",
" ......             ........         ............       ................       ............          ........           ....... ",
" ......             ........         ............       ................       ............         ........             ...... ",
" ......             ........          ...........       ................       ............         ........             ...... ",
" ......             ........          ...........       ................       ...........          ........             ...... ",
".......             .........         ...........       ................       ...........         .........             ...... ",
".......              ........         ...........       ................       ...........         ........              .......",
".......              ........          ..........       ................       ..........          ........              .......",
".......              .........         ...........      ................       ..........          ........              .......",
"......               .........         ...........      ................      ...........         .........               ......",
"......                ........          ..........      ................      ..........          ........                ......",
"......                .........         ..........       ..............       ..........         .........                ......",
"......                .........         ...........      ..............      ...........         .........                ......",
"......                 ........          ..........      ..............      ..........          .........                ......",
"......                 .........         ...........      ............       ..........         .........                 ......",
"......                 .........         ...........      ............      ...........         .........                 ......",
"......                  .........         ..........       ..........       ..........          .........                .......",
".......                 .........         ...........      ..........      ...........         .........                 .......",
".......                 .........          ..........       ........       ..........          .........                 .......",
".......                  .........         ...........      ........      ...........         .........                  .......",
".......                  .........          ..........       ......       ...........         .........                  ...... ",
" ......                  ..........         ...........      ......      ...........         ..........                  ...... ",
" ......                   .........         ...........       ....       ...........         .........                   ...... ",
" ......                   ..........         ...........       ..       ...........         ..........                   ...... ",
" .......                   .........         ............      ..      ............         .........                   ....... ",
" .......                   ..........         ...........              ...........         ..........                   ....... ",
" .......                   ..........         ............            ............         ..........                   ......  ",
"  ......                    ..........         ............          ............         ..........                    ......  ",
"  ......                    ..........         .............        .............         ..........                   .......  ",
"  .......                    ..........         ............        ............         ..........                    .......  ",
"  .......                    ...........         ............      ............         ...........                    ......   ",
"   ......                     ..........         ............      ............         ..........                     ......   ",
"   .......                    ...........         ..........        ..........         ...........                    .......   ",
"   .......                     ...........        .........          .........        ...........                     .......   ",
"    .......                     ..........         .......     ..     .......         ..........                     .......    ",
"    .......                     ...........         .....     ....     .....         ...........                     .......    ",
"     ......                      ...........        ....     ......     ....        ...........                      ......     ",
"     .......                     ...........         ..     ........     ..         ...........                     .......     ",
"     .......                      ...........              ..........              ...........                      .......     ",
"      .......                      ...........            ............            ...........                      .......      ",
"      .......                      ............          .............           ............                      .......      ",
"       .......                      ...........          ..............          ...........                      .......       ",
"       .......                       ...........        ................        ...........                      ........       ",
"        .......                      ............        ..............        ............                      .......        ",
"        ........                      ..........          ............          ..........                      ........        ",
"         .......                       ........            ..........            ........                       .......         ",
"          .......                       ......              ........              ......                       .......          ",
"          ........                      ....      ...       ........       ...     ....                       ........          ",
"           ........                      ..      .....       ......       .....      ..                      ........           ",
"           ........                             .......       ....       .......                             .......            ",
"            ........                           .........       ..       .........                           ........            ",
"             ........                         ...........              ...........                         ........             ",
"              ........                       .............            .............                       ........              ",
"              .........                       .............          .............                       ........               ",
"               .........                       .............        .............                       .........               ",
"                .........                       .............      .............                       .........                ",
"                 .........                       ..............  ..............                       .........                 ",
"                  .........                       ............................                       .........                  ",
"                   ..........                      ..........................                      ..........                   ",
"                    ..........                      ........................                      ..........                    ",
"                     ..........                      .....................                       ..........                     ",
"                      ...........                      ..................                      ...........                      ",
"                        ...........                     ................                     ...........                        ",
"                         ...........                     ..............                     ...........                         ",
"                          ............                     ..........                     ............                          ",
"                            ............                    ........                    ............                            ",
"                             ..............                   ....                   ..............                             ",
"                               ..............                  ..                  ..............                               ",
"                                .................                              .................                                ",
"                                  ...................                      ...................                                  ",
"                                    ........................        ........................                                    ",
"                                      ....................................................                                      ",
"                                         ..............................................                                         ",
"                                           ..........................................                                           ",
"                                               ..................................                                               ",
"                                                   ..........................                                                   ",
"                                                        ...............                                                         "};
