/* XPM */
static char * bitweb256_xpm[] = {
"256 256 2 1",
" 	c None",
".	c #FFE201",
"                                                                                                                    ........................                                                                                                                    ",
"                                                                                                             ......................................                                                                                                             ",
"                                                                                                       ..................................................                                                                                                       ",
"                                                                                                  ...........................................................                                                                                                   ",
"                                                                                              ...................................................................                                                                                               ",
"                                                                                           ..........................................................................                                                                                           ",
"                                                                                        ................................................................................                                                                                        ",
"                                                                                     ......................................................................................                                                                                     ",
"                                                                                  ............................................................................................                                                                                  ",
"                                                                                ................................................................................................                                                                                ",
"                                                                             ......................................................................................................                                                                             ",
"                                                                           ..........................................................................................................                                                                           ",
"                                                                         ..............................................................................................................                                                                         ",
"                                                                       ...........................................                            ...........................................                                                                       ",
"                                                                     .......................................                                        .......................................                                                                     ",
"                                                                   ....................................                                                  ....................................                                                                   ",
"                                                                 ..................................                                                          ..................................                                                                 ",
"                                                               ................................                                                                  ...............................                                                                ",
"                                                              ..............................                                                                        ..............................                                                              ",
"                                                            .............................                                                                              .............................                                                            ",
"                                                           ...........................                                                                                    ...........................                                                           ",
"                                                         ...........................                                                                                        ...........................                                                         ",
"                                                        .........................                                                                                             ..........................                                                        ",
"                                                      .........................                                                                                                  .........................                                                      ",
"                                                     ........................                                                                                                      ........................                                                     ",
"                                                   ........................                                                                                                          ........................                                                   ",
"                                                  .......................                                                                                                              .......................                                                  ",
"                                                 ......................                                                                                                                 .......................                                                 ",
"                                                ......................                                                                                                                    ......................                                                ",
"                                              ......................                                                                                                                        ......................                                              ",
"                                             .....................                                                                                                                           ......................                                             ",
"                                            .....................                                                                                                                              .....................                                            ",
"                                           ....................                                                                                                                                  ....................                                           ",
"                                          ....................                                                                                                                                    ....................                                          ",
"                                         ...................                                                                                                                                       ....................                                         ",
"                                        ...................                                                                                                                                          ...................                                        ",
"                                       ...................                                                                                                                                            ...................                                       ",
"                                      ..................                                                                                                                                               ...................                                      ",
"                                     ..................                                                                                                                                                  ..................                                     ",
"                                    ..................                                                                                                                                                    ..................                                    ",
"                                   ..................                                                                                                                                                      ..................                                   ",
"                                  ..................                                                             ...............................                                                            ..................                                  ",
"                                 ..................                                                   .....................................................                                                  ..................                                 ",
"                                .................                                             ....................................................................                                            ..................                                ",
"                               .................                                        ................................................................................                                       ..................                               ",
"                              .................                                     .........................................................................................                                   ..................                              ",
"                             .................                                 ..................................................................................................                                ..................                             ",
"                             ................                               .........................................................................................................                             .................                             ",
"                            ................                            .................................................................................................................                          .................                            ",
"                           ................                          .......................................................................................................................                        .................                           ",
"                          .................                        ...........................................................................................................................                       .................                          ",
"                         .................                         ...........................................................................................................................                        .................                         ",
"                         ................                          ...........................................................................................................................                         ................                         ",
"                        ................                           ...........................................................................................................................                          ................                        ",
"                       ................                            ...........................................................................................................................                           ................                       ",
"                       ...............                             ...........................................................................................................................                            ...............                       ",
"                      ...............                              ...........................................................................................................................                            ................                      ",
"                     ................                              ...........................................................................................................................                             ................                     ",
"                     ...............                               ..........................................................................................................................                               ...............                     ",
"                    ...............           ..                   .........................................................         ........................................................                   ..           ...............                    ",
"                   ...............          ....                   ......................................................              ......................................................                   ....         ................                   ",
"                   ...............         .....                   ....................................................                  ....................................................                   ......        ...............                   ",
"                  ...............        .......                   ...................................................                     ..................................................                   .......        ...............                  ",
"                 ...............        .........                  .................................................                        .................................................                   ........       ...............                  ",
"                 ...............       ..........                  ................................................                           ...............................................                   ..........      ...............                 ",
"                ...............      ............                   ..............................................            ....             ..............................................                   ...........      ...............                ",
"                ..............      .............                   .............................................            ......             .............................................                   ............     ...............                ",
"               ...............     ..............                   ............................................            ........            .............................................                   .............     ...............               ",
"               ..............      ..............                   ...........................................            ..........            ............................................                  ..............      ..............               ",
"              ...............      ..............                   ..........................................            ............            ..........................................                   ..............      ...............              ",
"              ..............       ..............                   ..........................................           ..............            .........................................                   ..............       ..............              ",
"             ..............        ..............                   .........................................           ................            ........................................                   ..............       ...............             ",
"             ..............        ..............                   ........................................            .................           ........................................                   ..............        ..............             ",
"            ..............         ..............                   ........................................           ..................            .......................................                   ..............         ..............            ",
"            ..............         ...............                  .......................................           ....................           .......................................                   ..............         ..............            ",
"           ..............          ...............                   ......................................           .....................           ......................................                   ..............          ..............           ",
"           ..............          ...............                   .....................................           ......................           ......................................                   ..............          ..............           ",
"          ..............           ...............                   .....................................           .......................           ....................................                   ...............           .............           ",
"          ..............           ...............                   ....................................           ........................           ....................................                   ...............           ..............          ",
"          .............             ..............                   ....................................           .........................           ...................................                   ...............            .............          ",
"         ..............             ..............                   ...................................           ..........................           ...................................                   ...............            ..............         ",
"         .............              ..............                   ...................................           ..........................            ..................................                   ...............            ..............         ",
"        ..............              ...............                   .................................            ...........................           ..................................                   ...............             ..............        ",
"        ..............              ...............                   .................................           ............................            .................................                   ..............              ..............        ",
"        .............               ...............                   ................................            ............................            ................................                   ...............               .............        ",
"       ..............               ...............                   ................................            .............................           ................................                   ...............               ..............       ",
"       .............                ...............                   ................................            .............................            ...............................                   ...............               ..............       ",
"       .............                ...............                   ...............................            ..............................            ...............................                   ...............                .............       ",
"      ..............                ................                   ..............................            ..............................            ...............................                   ...............                ..............      ",
"      .............                  ...............                   ..............................            ..............................             ..............................                   ...............                 .............      ",
"      .............                  ...............                   .............................             ...............................            .............................                   ................                 .............      ",
"     ..............                  ...............                   .............................             ...............................            .............................                   ...............                  ..............     ",
"     .............                   ...............                   .............................            ................................            .............................                   ...............                   .............     ",
"     .............                   ...............                    ............................            ................................             ............................                   ...............                   .............     ",
"    ..............                   ................                   ...........................             ................................             ............................                   ...............                   .............     ",
"    .............                    ................                   ...........................             ................................             ...........................                   ................                    .............    ",
"    .............                     ...............                   ...........................             ................................             ...........................                   ................                    .............    ",
"    .............                     ...............                   ...........................             ................................              ..........................                   ................                    .............    ",
"   .............                      ................                   .........................              .................................             ..........................                   ...............                     .............    ",
"   .............                      ................                   .........................              .................................             .........................                    ...............                      .............   ",
"   .............                      ................                   .........................              .................................             .........................                   ................                      .............   ",
"   .............                      ................                   .........................              .................................             .........................                   ................                      .............   ",
"   .............                       ...............                   .........................              .................................             .........................                   ................                      .............   ",
"  .............                        ................                   ........................              .................................             .........................                  ................                        ............   ",
"  .............                        ................                   ........................              .................................              .......................                   ................                        .............  ",
"  .............                        ................                   ........................             ..................................              .......................                   ................                        .............  ",
"  .............                        ................                   ........................             ..................................              .......................                   ................                        .............  ",
"  ............                          ................                   .......................             ..................................              ......................                   .................                        .............  ",
" .............                          ................                   .......................             ..................................              ......................                   ................                          ............  ",
" .............                          ................                   .......................             ..................................              ......................                   ................                          ............. ",
" .............                          .................                   ......................             ..................................              ......................                   ................                          ............. ",
" .............                          .................                   ......................             ..................................              .....................                   .................                          ............. ",
" .............                           ................                   ......................              .................................              .....................                   .................                          ............. ",
" .............                           ................                   ......................              .................................             ......................                   ................                           ............. ",
" ............                            .................                   .....................              .................................             ......................                   ................                           ............. ",
" ............                            .................                   .....................              .................................             .....................                   .................                            ............ ",
" ............                             ................                   ......................             ................................              .....................                   .................                            ............ ",
".............                             .................                   .....................             ................................             ......................                   ................                             ............ ",
".............                             .................                   .....................             ................................             .....................                   .................                             ............ ",
".............                             .................                   .....................             ................................             .....................                   .................                             .............",
".............                              .................                  ......................            ................................             .....................                   ................                              .............",
".............                              .................                   .....................            ................................            .....................                   .................                              .............",
".............                              .................                   .....................             ...............................            .....................                   .................                              .............",
".............                               .................                  .....................             ..............................             .....................                   .................                              .............",
".............                               .................                   .....................            ..............................            .....................                   .................                               .............",
".............                               .................                   .....................             .............................            .....................                   .................                               .............",
".............                               ..................                   ....................             ............................             .....................                  ..................                               .............",
".............                                .................                   .....................            ............................            .....................                   .................                                .............",
".............                                .................                   .....................             ...........................            .....................                   .................                                .............",
".............                                ..................                   ....................             ..........................             ....................                   ..................                                .............",
".............                                 .................                   .....................            ..........................            .....................                   ..................                                .............",
".............                                 ..................                  .....................             ........................             .....................                  ..................                                 .............",
".............                                 ..................                   .....................            ........................            .....................                   ..................                                 .............",
".............                                  .................                   .....................             .......................            .....................                   ..................                                 .............",
".............                                  ..................                   .....................            ......................             .....................                  ..................                                  .............",
".............                                  ..................                   .....................             .....................            .....................                   ..................                                  .............",
".............                                   ..................                  .....................             ....................             .....................                  ...................                                  .............",
".............                                   ..................                   .....................            ....................            .....................                   ..................                                   ............ ",
".............                                   ...................                  .....................             ..................             .....................                   ..................                                   ............ ",
" ............                                    ..................                   .....................            ..................            ......................                  ..................                                    ............ ",
" ............                                    ..................                   .....................             ................             .....................                   ..................                                    ............ ",
" ............                                    ...................                  ......................             ...............            ......................                  ...................                                   ............. ",
" .............                                    ..................                   .....................             ..............             .....................                   ..................                                    ............. ",
" .............                                    ...................                  ......................             ............             ......................                  ...................                                    ............. ",
" .............                                    ...................                   ......................            ............            ......................                   ...................                                    ............. ",
" .............                                     ...................                  ......................             ..........             ......................                  ...................                                     ............. ",
" .............                                     ...................                   ......................             ........             ......................                   ...................                                     ............  ",
"  ............                                      ...................                  ......................             ........             ......................                  ...................                                      ............  ",
"  .............                                     ...................                   ......................             ......             ......................                   ...................                                     .............  ",
"  .............                                      ...................                  .......................             ....              ......................                  ...................                                      .............  ",
"  .............                                      ...................                  .......................             ....             .......................                  ...................                                      .............  ",
"  .............                                      ....................                  .......................             ..             .......................                  ....................                                      .............  ",
"  .............                                       ...................                  ........................                           .......................                  ...................                                       ............   ",
"   .............                                      ....................                  .......................                          .......................                  ....................                                      .............   ",
"   .............                                       ...................                  ........................                        ........................                  ...................                                       .............   ",
"   .............                                       ....................                  ........................                      ........................                  ....................                                       .............   ",
"   .............                                        ...................                   .......................                      .......................                   ...................                                        .............   ",
"   ..............                                       ....................                  ........................                    ........................                  ....................                                       .............    ",
"    .............                                        ....................                  ........................                  ........................                  ....................                                        .............    ",
"    .............                                        ....................                  .........................                .........................                  ....................                                        .............    ",
"    .............                                         ....................                  ........................                ........................                  ....................                                         .............    ",
"    ..............                                        ....................                  .........................              .........................                  ....................                                        .............     ",
"     .............                                         ....................                  .........................            .........................                  ....................                                         .............     ",
"     .............                                         ....................                  .........................           ..........................                  ....................                                         .............     ",
"     ..............                                         ....................                  ........................            ........................                  ....................                                         ..............     ",
"      .............                                         .....................                  ......................              ......................                  .....................                                         .............      ",
"      .............                                          ....................                  .....................                .....................                  ....................                                          .............      ",
"      ..............                                         .....................                  ...................                  ...................                  .....................                                         ..............      ",
"       .............                                          .....................                 ..................                    ..................                 .....................                                          .............       ",
"       .............                                          .....................                  ................                      ................                  .....................                                         ..............       ",
"       ..............                                          .....................                 ...............           ..          ...............                  .....................                                          ..............       ",
"        .............                                          ......................                 .............           ....          ..............                 .....................                                           .............        ",
"        ..............                                          .....................                  ...........           ......          ............                  .....................                                          ..............        ",
"        ..............                                           .....................                 ...........          ........          ...........                 .....................                                           .............         ",
"         ..............                                          ......................                 .........          ..........          .........                 ......................                                          ..............         ",
"         ..............                                           .....................                  .......          ............          .......                 ......................                                           ..............         ",
"          .............                                           ......................                 ......          ..............          ......                 ......................                                          ..............          ",
"          ..............                                           ......................                 ....          ................          ....                 ......................                                           ..............          ",
"          ..............                                            ......................                 ..          ..................          ..                 ......................                                           ..............           ",
"           ..............                                           ......................                            ....................                            ......................                                           ..............           ",
"           ..............                                            ......................                          ......................                          ......................                                           ...............           ",
"            ..............                                            ......................                        ........................                        ......................                                            ..............            ",
"            ..............                                            .......................                      .........................                       .......................                                           ...............            ",
"             ..............                                            .......................                    ...........................                     .......................                                            ..............             ",
"             ...............                                            ......................                    ............................                    ......................                                            ...............             ",
"              ..............                                            .......................                  ..............................                  .......................                                            ..............              ",
"              ...............                                            .......................                ...............................                 .......................                                            ...............              ",
"               ..............                                             .......................                ..............................                .......................                                             ..............               ",
"               ...............                                            .......................                 ............................                .......................                                             ...............               ",
"                ...............                                            ......................                  ..........................                  ......................                                            ...............                ",
"                ...............                                             ....................                    ........................                    ....................                                             ..............                 ",
"                 ...............                                             ..................                     ........................                     ..................                                             ...............                 ",
"                  ..............                                             .................                       ......................                       .................                                            ...............                  ",
"                  ...............                                             ...............                         ....................                         ...............                                             ...............                  ",
"                   ...............                                             .............                           ..................                           .............                                             ...............                   ",
"                   ................                                             ...........           ..                ................                ..           ...........                                             ................                   ",
"                    ...............                                             .........            ....               ...............                ....           .........                                              ...............                    ",
"                     ...............                                             .......            ......               ..............               ......            ......                                              ...............                     ",
"                     ................                                             .....            ........               ............               ........            .....                                             ................                     ",
"                      ................                                             ...            ..........               ..........               ..........            ...                                             ................                      ",
"                       ...............                                                           ............               ........               ............            .                                             ................                       ",
"                       ................                                                        ...............               ......               ..............                                                         ................                       ",
"                        ................                                                      .................               ....               ................                                                       ................                        ",
"                         ................                                                    ...................               ..               ...................                                                    ................                         ",
"                         .................                                                  .....................                              .....................                                                  ................                          ",
"                          .................                                                .......................                            .......................                                                .................                          ",
"                           .................                                              .........................                          .........................                                              .................                           ",
"                            .................                                             ..........................                        ..........................                                             .................                            ",
"                             .................                                             ..........................                     ...........................                                             .................                             ",
"                             ..................                                             ...........................                  ...........................                                             .................                              ",
"                              ..................                                             ...........................                ...........................                                             ..................                              ",
"                               ..................                                             ...........................              ...........................                                             ..................                               ",
"                                ..................                                             ...........................            ...........................                                             ..................                                ",
"                                 ..................                                             ...........................          ...........................                                             ..................                                 ",
"                                  ..................                                             ...........................       ...........................                                              ..................                                  ",
"                                   ..................                                             ............................    ...........................                                              ..................                                   ",
"                                    ..................                                             ............................ ............................                                              ..................                                    ",
"                                     ..................                                             .......................................................                                             ...................                                     ",
"                                      ...................                                             ....................................................                                             ...................                                      ",
"                                       ...................                                             ..................................................                                             ...................                                       ",
"                                        ...................                                             ................................................                                             ...................                                        ",
"                                         ....................                                            ..............................................                                            ....................                                         ",
"                                          ....................                                            ...........................................                                             ....................                                          ",
"                                           ....................                                             ........................................                                            .....................                                           ",
"                                            .....................                                            ......................................                                            .....................                                            ",
"                                             ......................                                           ....................................                                           ......................                                             ",
"                                              ......................                                           .................................                                            .....................                                               ",
"                                                ......................                                           ..............................                                           ......................                                                ",
"                                                 .......................                                          ............................                                          .......................                                                 ",
"                                                  .......................                                          .........................                                          ........................                                                  ",
"                                                    .......................                                          ......................                                          .......................                                                    ",
"                                                     ........................                                         ....................                                         ........................                                                     ",
"                                                      ..........................                                        ................                                        ..........................                                                      ",
"                                                        ..........................                                       ..............                                       ..........................                                                        ",
"                                                         ...........................                                       ..........                                       ...........................                                                         ",
"                                                           ............................                                     ........                                     ............................                                                           ",
"                                                            .............................                                     ....                                     .............................                                                            ",
"                                                              ..............................                                   ..                                   ..............................                                                              ",
"                                                                ...............................                                                                 ................................                                                                ",
"                                                                 ..................................                                                          .................................                                                                  ",
"                                                                   ....................................                                                  ....................................                                                                   ",
"                                                                     .......................................                                        .......................................                                                                     ",
"                                                                       ............................................                          ............................................                                                                       ",
"                                                                         ..............................................................................................................                                                                         ",
"                                                                           .........................................................................................................                                                                            ",
"                                                                              ....................................................................................................                                                                              ",
"                                                                                ................................................................................................                                                                                ",
"                                                                                   ..........................................................................................                                                                                   ",
"                                                                                     ......................................................................................                                                                                     ",
"                                                                                        ................................................................................                                                                                        ",
"                                                                                           .........................................................................                                                                                            ",
"                                                                                               ..................................................................                                                                                               ",
"                                                                                                   ..........................................................                                                                                                   ",
"                                                                                                        ................................................                                                                                                        ",
"                                                                                                             .....................................                                                                                                              ",
"                                                                                                                      ...................                                                                                                                       "};
