/* XPM */
static char * bitweb32_xpm[] = {
"32 32 2 1",
" 	c None",
".	c #FFE201",
"            ........            ",
"         ..............         ",
"       ....          ....       ",
"      ...              ...      ",
"     ..                  ..     ",
"    ..     ..........     ..    ",
"   ..   ................   ..   ",
"  ..    .......  .......    ..  ",
"  ....  ...... .. ......  ....  ",
" .. ..   ....  ..  ....   .. .. ",
" .. ..   .... .... ....   .. .. ",
" .   ..  .... ....  ...   .   . ",
"..   ..  ...  ....  ...  ..   ..",
"..   ..  ...  ....  ...  ..   ..",
"..   ..   ..  ....  ..   ..   ..",
"..   ...  ... .... ...  ...   ..",
"..    ..  ... .... ...  ..    ..",
"..    ..   ..  ..  ..   ..    ..",
"..    ...  ...    ...  ...    ..",
"..     ..   ...  ...   ..     ..",
" .     ...  ...  ...  ...     . ",
" ..     ...  .    .  ...     .. ",
" ..      ..    ..    ..      .. ",
"  ..     ...  ....  ...     ..  ",
"  ..      .    ..    .      ..  ",
"   ..       ..    ..       ..   ",
"    ..      ...  ...      ..    ",
"     ..      ......      ..     ",
"      ...     ....     ...      ",
"       ....          ....       ",
"         ..............         ",
"            ........            "};
